<?xml version="1.0" encoding="UTF-8"?>
<map version="1.10" tiledversion="1.12.2" orientation="orthogonal" renderorder="right-down" width="60" height="40" tilewidth="32" tileheight="32" infinite="0" nextlayerid="11" nextobjectid="23">
 <tileset firstgid="1" source="TileSet.tsx"/>
 <tileset firstgid="4097" source="Town Props 2.tsx"/>
 <tileset firstgid="5121" source="Trees.tsx"/>
 <tileset firstgid="6145" source="Props.tsx"/>
 <layer id="1" name="Ground" width="60" height="40">
  <data encoding="csv">
131,131,131,131,131,131,131,131,131,131,131,131,131,131,131,131,131,131,131,131,131,131,131,131,131,131,131,131,961,961,961,961,131,131,131,131,131,131,131,131,131,131,131,131,131,131,131,131,131,131,131,131,131,131,131,131,131,131,131,131,
131,131,131,131,131,131,131,131,131,131,131,131,131,131,131,131,131,131,131,131,131,131,131,131,131,131,131,131,961,961,961,961,131,131,131,131,131,131,131,131,131,131,131,131,131,131,131,131,131,131,131,131,131,131,131,131,131,131,131,131,
131,131,131,131,131,131,131,131,131,131,131,131,131,131,131,131,131,131,131,131,131,131,131,131,131,131,131,131,961,961,961,961,131,131,131,131,131,131,131,131,131,131,131,131,131,131,131,131,131,131,131,131,131,131,131,131,131,131,131,131,
131,131,131,131,131,131,131,131,131,131,131,131,131,131,131,131,131,131,131,131,131,131,131,131,131,131,131,131,961,961,961,961,131,131,131,131,131,131,131,131,131,131,131,131,965,965,965,965,131,131,131,131,131,131,131,131,131,131,131,131,
131,131,131,131,131,131,131,131,131,131,131,131,131,131,131,131,131,131,131,131,131,131,131,131,131,131,131,131,961,961,961,961,131,131,131,131,131,131,131,131,131,131,131,131,965,965,965,965,131,131,131,131,131,131,131,131,131,131,131,131,
131,131,131,131,131,131,131,131,131,131,131,131,131,131,131,131,131,131,131,131,131,131,131,131,131,131,131,131,961,961,961,961,131,131,131,131,131,131,131,131,131,131,131,131,965,965,965,965,965,965,965,965,965,965,965,965,965,965,965,965,
131,131,131,131,131,131,131,131,131,131,131,131,131,131,131,131,131,131,131,131,131,131,131,131,131,131,131,131,961,961,961,961,131,131,131,131,131,131,131,131,131,131,131,131,965,965,965,965,965,965,965,965,965,965,965,965,965,965,965,965,
131,131,131,131,131,131,131,131,131,131,131,131,131,131,131,131,131,131,131,131,131,131,131,131,131,131,131,131,961,961,961,961,131,131,131,131,131,131,131,131,131,131,131,131,965,965,965,965,965,965,965,965,965,965,965,965,965,965,965,965,
131,131,131,131,131,131,131,131,131,131,131,131,131,131,131,131,131,131,131,131,131,131,131,131,131,131,131,131,961,961,961,961,131,131,131,131,131,131,131,131,131,131,131,131,965,965,965,965,965,965,965,965,965,965,965,965,965,965,965,965,
961,961,961,961,961,961,961,961,961,961,961,131,131,131,131,131,131,131,131,131,131,131,131,131,131,131,131,131,961,961,961,961,131,131,131,131,131,131,131,131,131,131,131,131,965,965,965,965,131,131,131,131,131,131,131,131,131,131,131,131,
961,961,961,961,961,961,961,961,961,961,961,131,131,131,131,131,131,131,131,131,131,131,131,131,131,131,131,131,961,961,961,961,131,131,131,131,131,131,131,131,131,131,131,131,965,965,965,965,131,131,131,131,131,131,131,131,131,131,131,131,
961,961,961,961,961,961,961,961,961,961,961,131,131,131,131,131,131,131,131,131,131,131,131,131,131,131,131,131,961,961,961,961,131,131,131,131,131,131,131,131,131,131,131,131,965,965,965,965,131,131,131,131,131,131,131,131,131,131,131,131,
961,961,961,961,961,961,961,961,961,961,961,131,131,131,131,131,131,131,131,131,131,131,131,131,131,131,131,131,961,961,961,961,131,131,131,131,131,131,131,131,131,131,131,131,965,965,965,965,131,131,131,131,131,131,131,131,131,131,131,131,
131,131,131,131,131,131,131,961,961,961,961,131,131,131,131,131,131,131,131,131,131,131,131,131,131,131,131,131,961,961,961,961,131,131,131,131,131,131,131,131,131,131,131,131,965,965,965,965,131,131,131,131,131,131,131,131,131,131,131,131,
131,131,131,131,131,131,131,961,961,961,961,131,131,131,131,131,131,131,131,131,131,131,131,131,131,131,131,131,961,961,961,961,131,131,131,131,131,131,131,131,131,131,131,131,965,965,965,965,131,131,131,131,131,131,131,131,131,131,131,131,
131,131,131,131,131,131,131,961,961,961,961,131,131,131,131,131,131,131,131,131,131,131,131,131,131,131,131,131,961,961,961,961,131,131,131,131,131,131,131,131,131,131,131,131,965,965,965,965,131,131,131,131,131,131,131,131,131,131,131,131,
131,131,131,131,131,131,131,961,961,961,961,131,131,131,131,131,131,131,131,131,131,131,131,131,131,131,131,131,961,961,961,961,131,131,131,131,131,131,131,131,131,131,131,131,965,965,965,965,131,131,131,131,131,131,131,131,131,131,131,131,
131,131,131,131,131,131,131,961,961,961,961,131,131,131,131,131,131,131,131,131,131,131,131,131,131,131,131,131,961,961,961,961,131,131,131,131,131,131,131,131,131,131,131,131,965,965,965,965,131,131,131,131,131,131,131,131,131,131,131,771,
771,771,771,771,771,771,771,961,961,961,961,961,961,961,961,961,961,961,961,961,961,961,961,961,961,961,961,961,961,961,961,961,961,961,961,961,961,961,961,961,961,961,961,961,965,961,961,961,961,961,961,961,961,961,961,961,961,961,771,771,
771,771,771,771,771,771,771,961,961,961,961,961,961,961,961,961,961,961,961,961,961,961,961,961,961,961,961,961,961,961,961,961,961,961,961,961,961,961,961,961,961,961,961,961,961,961,961,961,961,961,961,961,961,961,961,961,961,961,771,771,
771,771,771,771,771,771,771,961,961,961,961,961,961,961,961,961,961,961,961,961,961,961,961,961,961,961,961,961,961,961,961,961,961,961,961,961,961,961,961,961,961,961,961,961,961,961,961,961,961,961,961,961,961,961,961,961,961,961,771,771,
771,771,771,771,771,771,771,961,961,961,961,961,961,961,961,961,961,961,961,961,961,961,961,965,961,961,961,961,961,961,961,961,961,961,961,961,961,961,961,961,961,961,961,961,961,961,961,961,961,961,961,961,961,961,961,961,961,961,771,771,
131,131,131,131,131,131,131,961,965,965,965,131,131,131,131,131,131,131,131,131,965,965,965,965,131,131,131,131,131,131,131,131,131,131,965,965,965,965,131,131,131,131,131,131,131,131,131,131,131,131,965,965,965,965,131,131,131,131,771,131,
131,131,131,131,131,131,131,961,965,965,965,131,131,131,131,131,131,131,131,131,965,965,965,965,131,131,131,131,131,131,131,131,131,131,965,965,965,965,131,131,131,131,131,131,131,131,131,131,131,131,965,965,965,965,131,131,131,131,131,131,
131,131,131,131,131,131,131,961,965,965,965,131,131,131,131,131,131,131,131,131,965,965,965,965,131,131,131,131,131,131,131,131,131,131,965,965,965,965,131,131,131,131,131,131,131,131,131,131,131,131,965,965,965,965,131,131,131,131,131,131,
131,131,131,131,131,131,131,965,965,965,965,131,131,131,131,131,131,131,131,131,965,965,965,965,131,131,131,131,131,131,131,131,131,131,965,965,965,965,131,131,131,131,131,131,131,131,131,131,131,131,965,965,965,965,131,131,131,131,131,131,
131,131,131,131,131,131,131,965,965,965,965,131,131,131,131,131,131,131,131,131,965,965,965,965,131,131,131,131,131,131,131,131,131,131,965,965,965,965,131,131,131,131,131,131,131,131,131,131,131,131,965,965,965,965,131,131,131,131,131,131,
965,965,965,965,965,965,965,965,965,965,965,131,131,131,131,131,131,131,131,131,965,965,965,965,131,131,131,131,131,131,131,131,131,131,965,965,965,965,965,965,965,131,131,131,131,131,131,131,131,131,965,965,965,965,131,131,131,131,131,131,
965,965,965,965,965,965,965,965,965,965,965,131,131,131,131,131,131,131,131,131,965,965,965,965,131,131,131,131,131,131,131,131,131,131,965,965,965,965,965,965,965,131,131,131,131,131,131,131,131,131,965,965,965,965,131,131,131,131,131,131,
965,965,965,965,965,965,965,965,965,965,965,131,131,131,131,131,131,131,131,131,965,965,965,965,131,131,131,131,131,131,131,131,131,131,965,965,965,965,965,965,965,131,131,131,131,131,131,131,131,131,965,965,965,965,131,131,131,131,131,131,
965,965,965,965,965,965,965,965,965,965,965,131,131,131,131,131,131,131,131,131,965,965,965,965,131,131,131,131,131,131,131,131,131,131,965,965,965,965,965,965,965,131,131,131,131,131,131,131,131,131,965,965,965,965,131,131,131,131,131,131,
131,131,131,131,131,131,131,131,131,131,131,131,131,131,131,131,131,131,131,131,965,965,965,965,131,131,131,131,131,131,131,131,131,131,131,131,131,965,965,965,965,131,131,131,131,131,131,131,131,131,965,965,965,965,965,965,965,965,965,965,
131,131,131,131,131,131,131,131,131,131,131,131,131,131,131,131,131,131,131,131,965,965,965,965,131,131,131,131,131,131,131,131,131,131,131,131,131,965,965,965,965,131,131,131,131,131,131,131,131,131,965,965,965,965,965,965,965,965,965,965,
131,131,131,131,131,131,131,131,131,131,131,131,131,131,131,131,131,131,131,131,965,965,965,965,131,131,131,131,131,131,131,131,131,131,131,131,131,965,965,965,965,131,131,131,131,131,131,131,131,131,965,965,965,965,965,965,965,965,965,965,
131,131,131,131,131,131,131,131,131,131,131,131,131,131,131,131,131,131,131,131,965,965,965,965,131,131,131,131,131,131,131,131,131,131,131,131,131,965,965,965,965,131,131,131,131,131,131,131,131,131,965,965,965,965,965,965,965,965,965,965,
131,131,131,131,131,131,131,131,131,131,131,131,131,131,131,131,131,131,131,131,965,965,965,965,131,131,131,131,131,131,131,131,131,131,131,131,131,965,965,965,965,131,131,131,131,131,131,131,131,131,131,131,131,131,131,131,131,131,131,131,
131,131,131,131,131,131,131,131,131,131,131,131,131,131,131,131,131,131,131,131,965,965,965,965,131,131,131,131,131,131,131,131,131,131,131,131,131,965,965,965,965,131,131,131,131,131,131,131,131,131,131,131,131,131,131,131,131,131,131,131,
131,131,131,131,131,131,131,131,131,131,131,131,131,131,131,131,131,131,131,131,965,965,965,965,131,131,131,131,131,131,131,131,131,131,131,131,131,965,965,965,965,131,131,131,131,131,131,131,131,131,131,131,131,131,131,131,131,131,131,131,
131,131,131,131,131,131,131,131,131,131,131,131,131,131,131,131,131,131,131,131,965,965,965,965,131,131,131,131,131,131,131,131,131,131,131,131,131,965,965,965,965,131,131,131,131,131,131,131,131,131,131,131,131,131,131,131,131,131,131,131,
131,131,131,131,131,131,131,131,131,131,131,131,131,131,131,131,131,131,131,131,965,965,965,965,131,131,131,131,131,131,131,131,131,131,131,131,131,965,965,965,965,131,131,131,131,131,131,131,131,131,131,131,131,131,131,131,131,131,131,131
</data>
 </layer>
 <layer id="3" name="Ground Detail" width="60" height="40">
  <data encoding="csv">
0,0,0,0,0,0,0,0,0,0,0,0,0,0,0,0,0,0,0,0,0,0,0,0,0,0,0,0,394,1198,1199,390,0,0,0,0,0,0,0,0,0,0,0,0,0,0,0,0,0,0,0,0,0,0,0,0,0,0,0,0,
0,0,0,0,0,0,0,0,0,0,0,0,0,0,0,0,0,0,0,0,0,0,0,0,0,0,0,0,458,1262,1263,454,0,0,0,0,0,0,0,0,0,0,0,0,177,0,0,0,0,0,177,0,0,0,0,0,0,0,0,0,
0,0,0,0,0,0,0,0,0,0,0,0,0,0,0,0,0,0,110,0,0,0,0,0,0,0,0,0,522,1326,1327,518,0,0,0,0,0,0,0,0,0,0,0,0,0,0,0,0,0,0,0,0,0,0,0,0,177,0,0,0,
0,0,0,0,0,0,0,0,0,0,0,0,0,0,0,0,0,0,177,0,0,0,0,175,0,0,0,0,394,1390,1391,390,0,0,0,0,0,0,0,0,0,0,0,0,391,583,584,393,0,177,0,0,0,0,0,0,0,0,0,0,
0,0,0,0,0,0,0,0,0,0,0,0,0,0,0,0,0,0,0,0,0,0,0,0,0,0,0,0,458,1198,1199,454,0,0,0,0,0,0,0,0,0,0,0,0,458,1198,1199,454,0,0,0,0,0,0,0,0,0,0,0,0,
0,0,0,0,0,0,0,0,0,0,0,0,0,177,0,0,0,175,0,0,0,175,0,0,0,0,0,0,522,1262,1263,518,0,0,0,0,0,0,0,177,0,0,0,0,522,1262,1263,513,583,584,585,583,584,585,583,584,585,583,584,585,
0,0,0,110,0,0,0,0,0,0,0,0,0,0,0,0,0,0,0,0,0,0,0,0,0,0,0,0,394,1326,1327,390,0,0,0,0,0,0,0,0,0,0,0,0,394,1326,1327,1200,1201,1198,1199,1200,1201,1198,1199,1200,1201,1198,1199,1200,
0,0,0,175,0,0,0,0,110,0,0,0,0,0,0,0,0,0,0,0,110,0,0,0,0,0,0,0,458,1390,1391,454,0,0,0,0,0,177,0,110,175,0,0,0,458,1390,1391,1264,1265,1262,1263,1264,1265,1262,1263,1264,1265,1262,1263,1264,
0,0,0,0,175,0,0,0,0,0,0,0,0,0,0,0,0,0,0,0,0,0,0,0,0,0,0,0,522,1198,1199,518,0,5491,5491,5492,0,0,0,0,0,0,0,0,522,1198,1199,385,327,328,329,327,328,329,327,328,329,327,328,329,
585,583,584,585,583,584,585,583,584,585,393,0,0,177,0,0,0,0,0,0,0,0,0,0,0,0,0,0,394,1262,1263,390,0,5491,5493,5492,5523,0,0,0,0,0,0,0,394,1262,1263,390,0,0,0,0,0,0,0,0,0,0,0,0,
1200,1201,1198,1199,1200,1201,1198,1199,1200,1201,454,0,0,0,0,0,0,0,0,0,0,0,0,298,299,300,301,302,458,1326,1327,454,0,5493,5492,5492,0,0,0,0,0,0,0,0,458,1326,1327,454,0,0,110,0,0,110,0,0,0,0,0,0,
1264,1265,1262,1263,1264,1265,1262,1263,1264,1265,518,0,0,0,0,0,177,0,0,0,0,0,0,362,363,364,365,366,522,1390,1391,518,0,5491,5492,5493,0,0,0,0,0,0,175,0,522,1390,1391,518,0,0,0,0,0,0,0,0,0,0,0,0,
329,327,328,329,327,328,329,389,1198,1199,390,0,0,0,0,0,0,0,0,0,0,0,0,426,427,428,429,430,394,1198,1199,390,0,5492,5493,5492,0,0,0,0,0,0,0,0,394,1198,1199,390,0,0,0,0,0,0,0,0,0,0,0,0,
0,0,0,0,0,0,0,394,1262,1263,454,0,0,0,0,0,0,5493,5492,5493,5492,5492,5493,490,491,492,493,494,458,1262,1263,454,0,5491,5492,5492,5491,5492,5493,5491,5491,5492,5491,0,458,1262,1263,454,0,0,0,0,0,0,0,110,0,0,0,0,
0,0,5491,5491,5492,5493,0,458,1326,1327,518,0,0,0,0,0,0,5491,5492,5493,5491,5492,5492,5492,555,556,557,558,522,1326,1327,518,0,5493,5493,5492,5492,5492,5493,5491,5491,5491,5493,0,522,1326,1327,518,0,0,0,0,0,0,0,0,0,0,0,0,
0,0,5523,5492,5524,5525,0,522,1390,1391,390,0,0,0,0,0,0,5491,5493,5492,5491,5492,5492,5491,5492,5492,0,0,394,1390,1391,390,0,0,0,5493,5491,5492,5492,5492,5492,5492,5491,0,394,1390,1391,390,0,0,0,0,0,0,0,0,0,0,0,0,
0,0,5492,5492,5492,5493,0,394,1198,1199,454,0,0,0,0,0,0,5493,5492,5493,5493,5492,5492,5493,5492,5493,0,0,458,1198,1199,454,0,175,0,5493,5491,5492,5493,5491,5492,5492,5493,0,458,1198,1199,454,0,0,0,0,0,0,0,0,0,0,0,0,
0,0,5492,5523,5524,5492,0,458,1262,1263,518,0,0,0,0,0,0,5493,5492,5492,5491,5492,5493,5492,5492,5493,0,0,522,1262,1263,518,0,0,0,0,0,0,0,0,0,0,0,0,522,1262,1263,518,0,0,0,0,0,0,0,0,0,0,0,0,
0,0,5492,5491,5492,5493,0,522,1326,1327,513,583,584,585,583,584,585,583,584,585,583,584,585,583,584,585,583,584,586,1326,1327,513,583,584,585,583,584,585,583,584,585,583,584,585,586,1326,1327,513,583,584,585,583,584,585,583,584,585,393,0,0,
0,0,5492,5523,5524,5492,0,394,1390,1391,1200,1201,1198,1199,1200,1201,1198,1199,1200,1201,1198,1199,1200,1201,1198,1199,1200,1201,1199,1200,1201,1199,1200,1201,1199,1200,1201,1199,1200,1201,1199,1200,1201,1199,1200,1390,1391,1200,1201,1199,1200,1201,1199,1200,1199,1200,1201,390,0,0,
0,0,5491,5491,5492,5493,0,458,1198,1199,1264,1265,1262,1263,1264,1265,1262,1263,1264,1265,1262,1263,1264,1265,1262,1263,1264,1265,1263,1264,1265,1263,1264,1265,1263,1264,1265,1263,1264,1265,1263,1264,1265,1263,1264,1265,1263,1264,1265,1263,1264,1265,1263,1264,1263,1264,1265,454,0,0,
0,0,5523,5523,5524,5525,0,522,1262,1263,385,327,328,329,327,328,329,327,328,329,389,1198,1199,385,327,328,329,327,328,329,327,327,328,329,389,1198,1199,385,327,328,329,327,328,329,327,328,329,327,328,329,389,1198,1199,385,327,328,329,521,0,0,
0,0,5491,5492,5492,5493,0,394,1326,1327,390,5491,5492,5493,5491,5492,5493,5491,5492,5493,394,1262,1263,390,0,0,0,0,0,0,0,0,0,0,394,1262,1263,390,5492,5491,5493,5491,5492,5491,0,0,0,175,0,0,394,1262,1263,390,0,175,0,0,0,0,
0,0,5523,5492,5524,5525,0,458,1390,1391,454,5492,5492,5492,5491,5493,5493,5492,5493,5493,458,1326,1327,454,0,0,0,5491,5492,5493,5491,5492,5493,0,458,1326,1327,454,5491,5492,5493,5491,5492,5492,0,0,0,0,0,175,458,1326,1327,454,0,110,110,0,0,0,
0,0,5491,5491,5492,5493,0,394,1198,1199,518,5492,5493,5493,5491,5492,5493,5491,5492,5492,522,1390,1391,518,5491,5492,5493,5491,5492,5491,5492,5492,5491,0,522,1390,1391,390,5492,5491,5493,5492,5491,5493,0,0,0,0,0,0,522,1390,1391,454,110,0,0,0,0,0,
0,0,5523,5523,5524,177,0,458,1262,1263,390,5491,5493,5492,5491,5492,5493,5491,5492,5492,394,1198,1199,390,5491,5492,5493,5493,5491,5491,5493,5493,5493,0,394,1198,1199,454,5491,5491,5493,5491,5492,5493,0,0,0,0,0,0,394,1198,1199,518,0,0,0,0,0,0,
0,0,0,0,0,0,0,522,1326,1327,454,0,0,0,0,0,0,0,0,0,458,1262,1263,454,0,5491,5492,5493,5493,5492,5492,5493,5492,0,458,1198,1199,518,5492,5492,5493,5491,5492,5493,0,0,0,0,0,0,458,1262,1263,390,0,0,0,0,0,0,
583,584,585,583,583,584,585,580,1390,1391,518,0,0,0,110,0,0,0,0,0,522,1326,1327,518,0,5491,5492,5493,5491,5491,5492,5492,5492,0,522,1262,1263,513,583,584,393,0,0,0,0,0,0,0,0,175,522,1326,1327,454,0,0,0,0,0,0,
1200,1201,1198,1199,1200,1201,1198,1199,1200,1201,390,0,0,0,0,0,0,0,0,0,394,1390,1391,390,0,0,0,0,0,0,0,0,0,0,394,1326,1327,1199,1200,1201,454,0,0,0,0,0,0,0,0,0,394,1390,1391,390,0,175,110,0,0,0,
1264,1265,1262,1263,1264,1265,1262,1263,1264,1265,454,0,0,0,0,0,0,0,0,0,458,1198,1199,454,0,110,0,0,0,0,0,0,175,0,458,1390,1391,1263,1264,1265,518,0,0,0,0,0,0,0,0,0,458,1198,1199,454,0,0,0,0,0,0,
329,327,328,329,327,328,329,327,328,329,521,0,0,0,0,0,0,0,110,0,522,1262,1263,518,0,0,0,0,0,0,0,0,0,0,519,327,328,324,1198,1199,390,110,0,0,0,0,110,0,0,0,522,1262,1263,518,0,0,0,0,0,0,
0,0,0,175,0,0,0,0,175,0,0,0,0,6369,6370,0,0,0,0,0,394,1326,1327,390,0,0,0,0,0,0,0,0,0,0,0,0,0,394,1262,1263,454,0,0,175,0,0,0,0,0,0,394,1326,1327,513,583,584,585,583,584,585,
0,0,0,0,0,0,0,0,0,0,0,0,0,0,0,6371,0,0,0,0,458,1390,1391,454,175,0,0,0,0,0,0,0,0,0,0,0,0,458,1326,1327,518,0,0,0,0,0,0,0,0,0,394,1390,1391,1200,1201,1198,1199,1200,1201,1198,
0,0,0,0,0,0,0,0,0,110,0,0,0,0,0,0,0,0,0,0,522,1198,1199,518,0,0,0,0,0,0,0,0,0,0,0,0,0,522,1390,1391,390,0,0,0,0,0,0,0,0,0,458,1262,1263,1264,1265,1262,1263,1264,1265,1262,
0,0,0,0,0,0,0,0,0,0,177,0,0,0,0,0,0,177,0,0,394,1262,1263,390,0,0,0,0,0,0,0,0,0,0,0,0,0,394,1198,1199,454,0,0,0,0,0,0,0,175,0,519,327,328,329,327,328,329,327,328,329,
0,0,0,0,0,0,0,0,0,0,0,0,0,0,0,0,0,0,0,0,458,1326,1327,454,0,0,0,0,6369,6370,0,0,0,0,0,175,0,458,1262,1263,518,0,175,0,0,0,0,0,0,0,0,0,0,0,0,0,0,0,0,0,
0,0,0,0,0,0,0,0,0,0,0,0,0,0,0,0,0,0,0,0,522,1390,1391,518,0,0,0,175,0,0,0,6401,0,0,0,0,0,522,1326,1327,390,0,0,0,0,0,0,0,0,0,0,0,0,0,0,0,0,0,0,0,
0,0,0,0,0,177,0,0,6401,6402,6403,0,0,0,0,0,0,0,177,0,394,1198,1199,390,0,0,0,0,0,0,0,0,0,175,0,0,0,394,1390,1391,454,0,0,110,0,0,0,0,0,0,0,0,0,0,0,0,0,0,0,0,
0,0,0,0,0,0,0,0,0,0,0,0,0,0,0,0,0,0,0,0,458,1262,1263,454,0,0,110,0,0,0,175,0,0,0,0,0,0,458,1198,1199,518,0,0,0,0,0,0,0,0,0,0,0,0,0,0,0,0,0,0,0,
0,0,0,0,0,0,0,0,0,0,0,0,0,0,0,0,0,0,0,0,522,1326,1327,518,0,0,0,0,0,0,0,0,0,0,0,0,0,522,1262,1263,390,0,0,0,0,0,0,0,0,0,0,0,0,0,0,0,0,0,0,0
</data>
 </layer>
 <layer id="4" name="Shadows" width="60" height="40">
  <data encoding="csv">
0,0,0,0,0,0,0,0,0,0,0,0,0,0,0,0,0,0,0,0,0,0,0,0,0,0,0,0,0,0,0,0,0,0,0,0,0,0,0,0,0,0,0,0,0,0,0,0,0,0,0,0,0,0,0,0,0,0,0,0,
0,0,0,0,0,0,0,0,0,0,0,0,0,0,0,0,0,0,0,0,0,0,0,0,0,0,0,0,0,0,0,0,0,0,0,0,0,0,0,0,0,0,0,0,0,0,0,0,0,0,0,0,0,0,0,0,0,0,0,0,
0,0,0,0,0,0,0,0,0,0,0,0,0,0,0,5968,5969,5970,0,0,0,0,0,0,0,0,0,0,0,0,0,0,0,0,0,0,0,0,0,0,0,0,0,0,0,5968,5969,5970,0,0,0,0,0,0,0,0,0,0,0,0,
0,0,0,0,0,0,0,0,0,0,0,0,0,5968,5969,5970,6001,6002,0,5968,5969,5970,0,0,0,5965,5966,5967,0,0,0,0,5965,5966,5967,0,0,0,0,0,5965,5966,5967,0,0,6000,6001,6002,0,0,0,0,5968,5969,5970,0,0,0,0,0,
0,0,5974,5975,5976,5977,5978,5979,0,0,5965,5966,5967,6000,6001,6002,0,0,0,6000,6001,6002,0,0,0,5997,5998,5999,0,0,0,0,5997,5998,5999,0,5965,5966,5967,0,5997,5998,5999,0,0,0,0,0,0,0,0,0,6000,6001,6002,0,0,0,0,0,
0,0,6006,6007,6008,6009,6010,6011,0,0,5997,5998,5999,0,0,0,0,0,0,0,0,0,0,0,0,0,0,0,0,0,0,0,0,0,0,0,5997,5998,5999,0,0,0,0,0,0,0,0,0,0,0,0,0,0,0,0,0,0,0,0,0,
0,0,6038,6039,6040,6041,6042,6043,0,0,5968,5969,5970,0,0,0,0,0,0,0,0,0,0,0,0,0,0,0,0,0,0,0,0,5968,5969,5970,0,0,0,0,0,0,0,0,0,0,0,0,0,0,0,0,0,0,0,0,0,0,0,0,
0,0,6070,6071,6072,6073,6074,6075,0,0,6000,6001,6002,0,0,0,0,0,0,0,0,0,0,5965,5966,5967,0,0,0,0,0,0,0,6000,6001,6002,0,0,0,0,0,5968,5969,5970,0,0,0,0,0,0,0,0,0,0,0,0,0,0,0,0,
0,0,0,0,0,0,0,0,0,0,0,0,0,0,0,5965,5966,5967,0,0,0,0,0,5997,5998,5999,0,0,0,0,0,0,0,0,0,0,0,0,0,0,0,6000,6001,6002,0,0,0,0,0,0,0,0,0,0,0,0,0,0,0,0,
0,0,0,0,0,0,0,0,0,0,0,0,0,0,0,5997,5998,5999,0,0,0,0,0,0,0,0,0,0,0,0,0,0,0,0,0,0,0,0,0,0,0,0,0,0,0,0,0,0,0,0,0,0,0,0,0,5968,5969,5970,0,0,
0,0,0,0,0,0,0,0,0,0,0,0,0,0,0,0,0,0,0,0,0,0,0,0,0,0,0,0,0,0,0,0,0,0,0,0,0,0,0,5968,5969,5970,0,0,0,0,0,0,0,0,0,0,0,0,0,6000,6001,6002,0,0,
0,0,0,0,0,0,0,0,0,0,0,0,0,0,0,0,0,0,0,0,0,0,0,0,0,0,0,0,0,0,0,0,0,0,0,0,0,0,0,6000,6001,6002,0,0,0,0,0,0,0,0,0,0,0,0,0,0,0,0,0,0,
0,0,0,0,0,0,0,0,0,0,0,0,0,0,0,0,0,0,0,0,0,0,0,0,0,0,0,0,0,0,0,0,0,0,0,0,0,0,0,0,0,0,0,0,0,0,0,0,0,0,0,0,0,0,0,0,0,0,0,0,
0,0,0,0,0,0,0,0,0,0,0,0,0,0,0,0,0,0,0,0,0,0,0,0,0,0,0,0,0,0,0,0,0,0,0,0,0,0,0,0,0,0,0,0,0,0,0,0,0,0,0,0,0,0,0,0,0,0,0,0,
0,0,0,0,0,0,0,0,0,0,0,0,0,0,0,0,0,0,0,0,0,0,0,0,0,0,0,0,0,0,0,0,0,0,0,0,0,0,0,0,0,0,0,0,0,0,0,0,0,0,0,0,5965,5966,5967,0,0,0,0,0,
0,0,0,0,0,0,0,0,0,0,0,0,0,0,0,0,0,0,0,0,0,0,0,0,0,0,0,0,0,0,0,0,0,0,0,0,0,0,0,0,0,0,0,0,0,0,0,0,0,0,0,0,5997,5998,5999,0,0,0,0,0,
0,0,0,0,0,0,0,0,0,0,0,0,0,0,0,0,0,0,0,0,0,0,0,0,0,0,0,0,0,0,0,0,0,0,0,0,0,0,0,0,0,0,0,0,0,0,0,0,0,0,0,0,0,0,0,0,0,0,0,0,
0,0,0,0,0,0,0,0,0,0,0,0,0,0,0,0,0,0,0,0,0,0,0,0,0,0,0,0,0,0,0,0,0,0,0,0,0,0,0,0,0,0,0,0,0,0,0,0,0,0,0,0,0,0,0,0,0,0,0,0,
0,0,0,0,0,0,0,0,0,0,0,0,0,0,0,0,0,0,0,0,0,0,0,0,0,0,0,0,0,0,0,0,0,0,0,0,0,0,0,0,0,0,0,0,0,0,0,0,0,0,0,0,0,0,0,0,0,0,0,0,
0,0,0,0,0,0,0,0,0,0,0,0,0,0,0,0,0,0,0,0,0,0,0,0,0,0,0,0,0,0,0,0,0,0,0,0,0,0,0,0,0,0,0,0,0,0,0,0,0,0,0,0,0,0,0,0,0,0,0,0,
0,0,0,0,0,0,0,0,0,0,0,0,0,0,0,0,0,0,0,0,0,0,0,0,0,0,0,0,0,0,0,0,0,0,0,0,0,0,0,0,0,0,0,0,0,0,0,0,0,0,0,0,0,0,0,0,0,0,0,0,
0,0,0,0,0,0,0,0,0,0,0,0,0,0,0,0,0,0,0,0,0,0,0,0,0,0,0,0,0,0,0,0,0,0,0,0,0,0,0,0,0,0,0,0,0,0,0,0,0,0,0,0,0,0,0,0,0,0,0,0,
0,0,0,0,0,0,0,0,0,0,0,0,0,0,0,0,0,0,0,0,0,0,0,0,5965,5966,5967,0,0,0,0,0,0,0,0,0,0,0,0,0,0,0,0,0,0,0,0,0,0,0,0,0,0,0,0,0,0,0,0,0,
0,0,0,0,0,0,0,0,0,0,0,0,0,0,0,0,0,0,0,0,0,0,0,0,5997,5998,5999,0,0,0,0,0,0,0,0,0,0,0,0,0,0,0,0,0,0,0,0,0,0,0,0,0,0,0,0,0,0,0,0,0,
0,0,0,0,0,0,0,0,0,0,0,0,0,0,0,0,0,0,0,0,0,0,0,0,0,0,0,0,0,0,0,0,0,0,0,0,0,0,0,0,0,0,0,0,0,0,0,0,0,0,0,0,0,0,0,0,0,0,0,0,
0,0,0,0,0,0,0,0,0,0,0,0,0,0,0,0,0,0,0,0,0,0,0,0,0,0,0,0,0,0,0,0,0,0,0,0,0,0,0,0,0,0,5942,5943,5944,5945,5946,5947,0,0,0,0,0,0,0,5968,5969,5970,0,0,
0,0,0,0,0,0,0,0,0,0,0,0,0,0,5968,5969,5970,0,0,0,0,0,0,0,0,0,0,0,0,0,0,0,0,0,0,0,0,0,0,0,0,0,5974,5975,5976,5977,5978,5979,0,0,0,0,0,0,0,6000,6001,6002,0,0,
0,0,0,0,0,0,0,0,0,0,0,0,0,0,6000,6001,6002,0,0,0,0,0,0,0,0,0,0,0,0,0,0,0,0,0,0,0,0,0,0,0,0,0,6006,6007,6008,6009,6010,6011,0,0,0,0,0,0,0,0,0,0,0,0,
0,0,0,0,0,0,0,0,0,0,0,0,0,0,0,0,0,0,0,0,0,0,0,0,0,0,0,0,0,0,0,0,0,0,0,0,0,0,0,0,0,0,6038,6039,6040,6041,6042,6043,0,0,0,0,0,0,0,0,0,0,0,0,
0,0,0,0,0,0,0,0,0,0,0,0,0,0,0,0,0,0,0,0,0,0,0,0,0,0,5968,5969,5970,0,0,0,0,0,0,0,0,0,0,0,0,0,6070,6071,6072,6073,6074,6075,0,0,0,0,0,0,0,0,0,0,0,0,
0,0,0,0,0,0,0,0,0,0,0,0,0,0,0,0,0,0,0,0,0,0,0,0,0,0,6000,6001,6002,5968,5969,5970,0,0,0,0,0,0,0,0,0,0,0,0,0,0,0,0,0,0,0,0,0,0,0,0,0,0,0,0,
0,0,0,0,0,0,0,0,0,0,0,0,0,0,0,0,0,0,0,0,0,0,0,0,0,0,0,0,0,6000,6001,6002,0,0,0,0,0,0,0,0,0,0,0,0,0,0,0,0,0,0,0,0,0,0,0,0,0,0,0,0,
0,0,0,0,0,0,0,0,0,0,0,0,5968,5969,5970,0,0,0,0,0,0,0,0,0,0,0,0,0,0,0,0,0,0,0,0,0,0,0,0,0,0,0,0,0,0,0,0,0,0,0,0,0,0,0,0,0,0,0,0,0,
0,0,0,0,0,0,0,0,0,0,0,0,6000,6001,6002,0,0,0,0,0,0,0,0,0,5968,5969,5970,5965,5966,5967,0,0,0,0,0,0,0,0,0,0,0,0,0,0,0,0,0,0,0,0,0,0,0,0,0,0,0,0,0,0,
0,0,0,0,5968,5969,5969,5970,0,0,0,0,0,0,0,0,0,0,0,0,0,0,0,0,6000,6001,6002,5997,5998,5999,0,0,0,0,0,0,0,0,0,0,0,0,0,0,0,0,0,0,0,0,0,0,0,0,0,0,0,0,0,0,
0,0,0,0,6000,6001,6001,6002,0,0,0,0,0,0,0,0,0,0,0,0,0,0,0,0,0,0,0,0,0,0,0,0,0,0,0,0,0,0,0,0,0,0,0,0,0,0,0,0,0,0,0,0,0,0,0,0,0,0,0,0,
0,5968,5969,5970,0,0,0,0,0,0,0,0,0,0,5965,5966,5967,0,0,0,0,0,0,0,0,0,0,0,0,0,0,0,0,0,0,0,0,0,0,0,0,0,0,0,0,5965,5966,5967,0,0,0,0,5968,5969,5970,5965,5966,5967,0,0,
0,6000,6001,6002,0,0,0,0,0,0,0,0,0,0,5997,5998,5999,0,0,0,0,0,0,0,0,0,0,0,0,0,0,0,0,0,0,0,0,0,0,0,0,0,0,0,0,5997,5998,5999,0,0,0,0,6000,6001,6002,5997,5998,5999,0,0,
0,0,0,0,0,0,0,0,0,0,0,0,0,0,0,0,0,0,0,0,0,0,0,0,0,0,0,0,0,0,0,0,0,0,0,0,0,0,0,0,0,0,0,0,0,0,0,0,0,0,0,0,0,0,0,0,0,0,0,0,
0,0,0,0,0,0,0,0,0,0,0,0,0,0,0,0,0,0,0,0,0,0,0,0,0,0,0,0,0,0,0,0,0,0,0,0,0,0,0,0,0,0,0,0,0,0,0,0,0,0,0,0,0,0,0,0,0,0,0,0
</data>
 </layer>
 <layer id="5" name="Objects Base" width="60" height="40">
  <data encoding="csv">
4426,4431,4432,4430,4431,4432,4430,4431,4432,4430,4431,4432,4430,4431,4432,4430,4431,4432,4430,4431,4432,4430,4431,4432,4430,4431,4432,4433,0,0,0,0,4429,4430,4431,4432,4430,4431,4432,4430,4431,4432,4430,4431,4432,4430,4431,4432,4430,4431,4432,4430,4431,4432,4430,4431,4432,4430,4431,4436,
4628,0,0,0,0,0,0,0,6199,6200,0,0,0,0,0,0,0,0,0,0,0,0,0,0,0,0,0,0,0,0,0,0,0,0,0,0,0,0,0,0,0,0,0,0,0,0,0,0,0,0,0,0,0,0,0,0,0,0,0,4628,
4628,0,0,0,0,0,0,0,6231,6232,0,0,0,0,0,0,6310,0,0,0,0,0,0,0,0,0,0,0,0,0,0,0,0,0,0,0,0,0,0,0,0,0,0,0,0,0,6308,0,0,0,0,0,0,0,0,0,0,0,0,4628,
4628,0,0,0,0,0,0,0,0,0,0,0,0,0,5403,0,0,0,0,0,6308,0,0,0,0,0,5243,0,0,0,0,0,5242,5243,0,0,0,0,0,0,5242,5243,0,0,0,0,0,0,0,0,0,0,0,6310,0,0,0,0,0,4628,
4628,0,0,0,0,0,0,0,0,0,0,5243,0,0,0,0,0,0,0,0,0,0,0,0,0,0,0,0,0,0,0,0,0,0,0,0,5242,5243,0,0,0,0,0,0,0,0,0,0,0,0,0,0,0,0,0,0,0,0,0,4660,
4628,0,0,0,5354,5355,5356,0,0,0,0,0,0,0,0,0,0,0,0,0,0,0,0,0,0,0,0,0,0,0,0,0,0,0,0,0,0,0,0,0,0,0,0,0,0,0,0,0,0,0,0,0,0,0,0,0,0,0,0,0,
4628,0,0,0,0,0,0,0,0,0,0,6310,0,0,0,0,0,0,0,0,0,0,0,0,0,0,0,0,0,0,0,0,0,0,6308,0,0,0,0,0,0,0,0,0,0,0,0,0,0,0,0,0,0,0,0,0,0,0,0,0,
4628,0,0,0,0,0,0,0,0,0,0,0,0,0,0,0,0,0,0,0,0,0,0,0,5243,0,0,0,0,0,0,0,0,0,0,0,0,0,0,0,0,0,6310,0,0,0,0,0,0,0,0,0,0,0,0,0,0,0,0,0,
4660,0,0,0,0,0,0,0,0,0,0,0,0,0,0,0,5243,0,0,0,0,0,0,0,0,0,0,0,0,0,0,0,0,0,0,0,0,0,0,0,0,0,0,0,0,0,0,0,0,0,0,0,0,0,0,0,0,0,0,0,
0,0,0,0,0,0,0,0,0,0,0,0,0,0,0,0,0,0,0,0,6327,6328,0,0,0,0,0,0,0,0,0,0,0,0,0,0,0,0,6455,6456,0,0,0,0,0,0,0,0,0,0,0,0,0,0,0,0,6310,0,0,4500,
0,0,0,0,0,0,0,0,0,0,0,0,0,0,0,0,0,0,0,0,6359,6360,6199,6200,0,0,0,0,0,0,0,0,0,0,0,0,0,6357,6487,6488,6308,0,0,0,0,0,0,0,0,0,0,0,0,0,0,0,0,0,0,4628,
0,0,0,0,0,0,0,0,0,0,0,0,0,6455,6456,0,0,0,0,0,0,0,6231,6232,0,0,0,0,0,0,0,0,0,0,0,0,0,0,0,0,0,0,0,0,0,0,0,0,0,0,6455,6456,0,0,0,0,0,0,0,4628,
0,0,0,0,0,0,0,0,0,0,0,6199,6200,6487,6488,0,0,0,0,0,0,0,0,0,0,0,0,0,0,0,0,0,0,0,0,0,0,0,0,0,0,0,0,0,0,0,0,0,0,0,6487,6488,0,0,0,0,0,0,0,4628,
4500,0,0,0,0,0,0,0,0,0,0,6231,6232,0,0,0,0,0,0,0,0,0,0,0,0,0,0,0,0,0,0,0,0,0,0,0,0,0,0,0,0,0,0,0,0,0,0,0,0,0,0,0,0,0,0,0,0,0,0,4628,
4628,0,0,0,0,0,0,0,0,0,0,0,0,0,6369,6370,6308,0,0,0,0,0,0,0,0,0,0,0,0,0,0,0,0,0,0,0,0,0,0,0,0,0,0,0,0,0,0,0,0,6465,0,6467,0,5243,0,0,0,0,0,4628,
4628,0,0,0,0,0,0,0,0,0,0,0,0,0,0,0,0,0,0,0,0,0,0,0,0,0,0,0,0,0,0,0,0,0,0,0,0,0,0,0,0,0,0,0,0,0,0,0,0,0,0,0,0,0,0,5329,5330,5331,0,4628,
4628,0,0,0,0,0,0,0,0,0,0,0,0,0,0,0,0,0,0,0,0,0,0,0,0,0,0,0,0,0,0,0,0,0,0,0,0,0,0,0,0,0,0,0,0,0,0,0,0,0,6433,6434,0,0,0,5361,5362,5363,0,4628,
4628,0,0,0,0,0,0,0,0,0,0,0,0,0,0,0,0,0,0,0,0,0,0,0,0,0,0,0,0,0,0,0,0,0,0,0,0,0,0,0,0,0,0,0,0,0,0,0,0,0,0,0,0,0,0,0,0,0,0,4628,
4628,0,0,0,0,0,0,0,0,0,0,0,0,0,0,0,0,0,0,0,0,0,0,0,0,0,0,0,0,0,0,0,0,0,0,0,0,0,0,0,0,0,0,0,0,0,0,0,0,0,0,0,0,0,0,0,0,0,0,4628,
4628,0,0,0,0,0,0,0,0,0,0,0,0,0,0,0,0,0,0,0,0,0,0,0,0,0,0,0,0,0,0,0,0,0,0,0,0,0,0,0,0,0,0,0,0,0,0,0,0,0,0,0,0,0,0,0,0,0,0,4628,
4628,0,0,0,0,0,0,0,0,0,0,0,0,0,0,0,0,0,0,0,0,0,0,0,0,0,0,0,0,0,0,0,0,0,0,0,0,0,0,0,0,0,0,0,0,0,0,0,0,0,0,0,0,0,0,0,0,0,0,4628,
4628,0,0,0,0,0,0,0,0,0,0,0,0,0,0,0,0,0,0,0,0,0,0,0,0,0,0,0,0,0,0,0,0,0,0,0,0,0,0,0,0,0,0,0,0,0,0,0,0,0,0,0,0,0,0,0,0,0,0,4628,
4628,0,0,0,0,0,0,0,0,0,0,0,0,0,0,0,0,0,0,0,0,0,0,0,6313,6314,6315,0,0,0,0,0,0,0,0,0,0,0,0,0,0,0,0,0,0,0,0,0,0,0,0,0,0,0,0,0,0,0,0,4628,
4628,0,0,0,0,0,0,0,0,0,0,0,0,0,0,0,0,0,0,0,0,0,0,0,6345,6346,6347,0,0,0,0,0,0,0,0,0,0,0,0,0,0,0,0,0,0,0,0,0,0,0,0,0,0,0,0,0,0,0,0,4628,
4628,0,0,0,0,0,0,0,0,0,0,0,0,0,0,0,0,0,0,0,0,0,0,0,0,0,0,0,0,0,0,0,0,0,0,0,0,0,0,0,0,0,0,0,0,0,0,0,0,0,0,0,0,0,0,0,0,0,0,4628,
4628,0,0,0,0,0,0,0,0,0,0,0,0,0,0,0,0,0,0,0,0,0,0,0,0,0,0,0,0,0,0,0,0,0,0,0,0,0,0,0,0,0,0,0,0,0,0,0,0,0,0,0,0,0,0,0,6310,0,0,4628,
4660,0,0,0,0,0,0,0,0,0,0,0,0,0,0,6310,0,0,0,0,0,0,0,0,0,0,0,0,0,0,0,0,0,0,0,0,0,0,0,0,0,0,0,0,0,0,0,0,0,0,0,0,0,0,0,0,0,0,0,4628,
0,0,0,0,0,0,0,0,0,0,0,0,0,0,0,0,0,0,0,0,0,0,0,0,0,0,0,0,0,0,0,0,0,0,0,0,0,0,0,0,0,0,0,0,5354,5355,5356,0,0,0,0,0,0,0,0,0,0,0,0,4628,
0,0,0,0,0,0,0,0,0,0,0,0,0,0,0,0,0,0,0,0,0,0,0,0,0,0,0,0,0,0,0,0,0,0,0,0,0,0,0,0,0,0,0,0,0,0,6310,0,0,0,0,0,0,0,0,0,0,0,0,4628,
0,0,0,0,0,0,0,0,0,0,0,0,0,0,0,0,0,0,0,0,0,0,0,0,0,0,0,6308,0,0,0,0,0,0,0,0,0,0,0,0,0,0,0,0,0,0,0,0,0,0,0,0,0,0,0,0,0,0,0,4628,
0,0,0,0,0,0,0,0,0,0,0,0,0,0,0,0,0,0,0,0,0,0,0,0,0,0,0,0,0,0,6308,0,0,0,0,0,0,0,0,0,0,0,0,0,0,0,0,0,0,0,0,0,0,0,0,0,0,0,0,4660,
4500,0,0,0,0,0,0,0,0,0,0,0,0,0,0,0,0,0,0,0,0,0,0,0,0,0,0,0,0,0,0,0,6455,6456,0,0,0,0,0,0,0,0,0,0,0,0,0,5329,5330,5331,0,0,0,0,0,0,0,0,0,0,
4628,0,0,0,0,0,0,0,0,0,0,0,0,6310,0,0,0,0,0,0,0,0,0,0,0,0,0,0,0,0,6327,6328,6487,6488,0,0,0,0,0,0,0,0,0,6455,6456,0,0,5361,5362,5363,0,0,0,0,0,0,0,0,0,0,
4628,0,0,0,0,0,0,0,0,0,0,0,0,0,0,0,0,0,0,0,0,0,0,0,0,6310,0,0,5243,0,6359,6360,6199,6200,0,0,0,0,0,0,0,0,0,6487,6488,0,0,0,0,0,0,0,0,0,0,0,0,0,0,0,
4628,0,0,0,0,5403,6310,0,0,0,0,0,6327,6328,6198,0,0,0,0,0,0,0,0,0,0,0,0,0,0,0,0,0,6231,6232,0,0,0,0,0,0,0,0,0,0,0,0,0,0,0,0,0,0,0,0,0,0,0,0,0,0,
4628,0,0,0,0,0,0,0,0,0,0,0,6359,6360,6230,0,0,0,0,0,0,0,0,0,0,0,0,0,0,0,0,0,0,0,0,0,0,0,0,0,0,0,0,0,0,0,0,0,6391,6392,0,0,0,0,0,0,0,0,0,4500,
4628,0,5398,0,0,0,0,0,0,0,0,0,0,0,6313,6314,6315,0,0,0,0,0,0,0,0,0,0,0,0,0,0,0,0,0,0,0,0,0,0,0,0,0,0,0,0,0,5398,0,6423,6424,0,6455,6456,6310,0,0,5243,0,0,4628,
4628,0,0,0,0,0,0,0,0,0,0,0,0,0,6345,6346,6347,0,0,0,0,0,0,0,0,0,0,0,0,0,0,0,0,0,0,0,0,0,0,0,0,0,0,0,0,0,0,0,0,0,0,6487,6488,0,0,0,0,0,0,4628,
4628,0,0,0,0,0,0,0,0,0,0,0,0,0,0,0,0,0,0,0,0,0,0,0,0,0,0,0,0,0,0,0,0,0,0,0,0,0,0,0,0,0,0,0,0,0,0,0,0,0,0,0,0,0,0,0,0,0,0,4628,
4522,4430,4431,4432,4430,4431,4432,4430,4431,4432,4430,4431,4432,4430,4431,4432,4430,4431,4432,4433,0,0,0,0,4429,4430,4431,4432,4430,4431,4432,4430,4431,4430,4431,4432,4433,0,0,0,0,4531,4430,4431,4432,4430,4431,4432,4430,4431,4432,4430,4431,4432,4430,4431,4432,4430,4431,4532
</data>
 </layer>
 <layer id="6" name="Objects Top" width="60" height="40">
  <data encoding="csv">
0,0,5164,5165,5166,5167,5168,5169,5170,0,0,0,0,0,0,0,0,0,0,0,0,0,0,0,0,5143,5144,5145,0,0,0,0,5143,5144,5145,0,0,0,0,0,5143,5144,5145,0,0,0,0,0,0,0,0,0,0,0,0,0,0,0,0,0,
0,0,5196,5197,5198,5199,5200,5201,5202,0,5143,5144,5145,5338,5339,5340,0,0,0,0,0,0,0,0,0,5175,5176,5177,0,0,0,0,5175,5176,5177,0,5143,5144,5145,0,5175,5176,5177,0,0,0,0,0,0,0,0,0,0,0,0,0,0,0,0,0,
0,0,5228,5229,5230,5231,5232,5233,5234,0,5175,5176,5177,5370,5371,5372,0,0,0,0,0,0,0,0,0,5207,5208,5209,0,0,0,0,5207,5208,5209,0,5175,5176,5177,0,5207,5208,5209,0,0,0,0,0,0,0,0,0,0,0,0,0,0,0,0,0,
0,0,5260,5261,5262,5263,5264,5265,5266,0,5207,5208,5209,5402,0,5404,0,0,0,0,0,0,0,0,0,5239,5240,5241,0,0,0,0,5239,5240,5241,0,5207,5208,5209,0,5239,5240,5241,0,0,0,0,0,0,0,0,0,0,0,0,0,0,0,0,0,
0,0,5292,5293,5294,5295,5296,5297,5298,0,5239,5240,5241,0,0,0,0,0,0,0,0,0,0,5143,5144,5145,0,0,0,0,0,0,0,0,0,0,5239,5240,5241,0,0,0,0,0,0,0,0,0,0,0,0,0,0,0,0,0,0,0,0,0,
0,0,0,5325,0,0,0,0,0,0,0,0,0,0,0,5140,5141,5142,0,0,0,0,0,5175,5176,5177,0,0,0,0,0,0,0,0,0,0,0,0,0,0,0,0,0,0,0,0,0,0,0,0,0,0,0,0,0,0,0,0,0,0,
0,0,0,0,0,0,0,0,0,0,0,0,0,0,0,5172,5173,5174,0,0,0,0,0,5207,5208,5209,0,0,0,0,0,0,0,0,0,0,0,0,0,0,0,0,0,0,0,0,0,0,0,0,0,0,0,0,0,0,0,0,0,0,
0,0,0,0,0,0,0,0,0,0,0,0,0,0,0,5204,5205,5206,0,0,0,0,0,5239,5240,5241,0,0,0,0,0,0,0,0,0,0,0,0,0,0,0,0,0,0,0,0,0,0,0,0,0,0,0,0,0,0,0,0,0,0,
0,0,0,0,0,0,0,0,0,0,0,0,0,0,0,5236,5237,5238,0,0,0,0,0,0,0,0,0,0,0,0,0,0,0,0,0,0,0,0,0,0,0,0,0,0,0,0,0,0,0,0,0,0,0,0,0,0,0,0,0,0,
0,0,0,0,0,0,0,0,0,0,0,0,0,0,0,0,0,0,0,0,0,0,0,0,0,0,0,0,0,0,0,0,0,0,0,0,0,0,0,0,0,0,0,0,0,0,0,0,0,0,0,0,0,0,0,0,0,0,0,0,
0,0,0,0,0,0,0,0,0,0,0,0,0,0,0,0,0,0,0,0,0,0,0,0,0,0,0,0,0,0,0,0,0,0,0,0,0,0,0,0,0,0,0,0,0,0,0,0,0,0,0,0,0,0,0,0,0,0,0,0,
0,0,0,0,0,0,0,0,0,0,0,0,0,0,0,0,0,0,0,0,0,0,0,0,0,0,0,0,0,0,0,0,0,0,0,0,0,0,0,0,0,0,0,0,0,0,0,0,0,0,0,0,5140,5141,5142,0,0,0,0,0,
0,0,0,0,0,0,0,0,0,0,0,0,0,0,0,0,0,0,0,0,0,0,0,0,0,0,0,0,0,0,0,0,0,0,0,0,0,0,0,0,0,0,0,0,0,0,0,0,0,0,0,0,5172,5173,5174,0,0,0,0,0,
0,0,0,0,0,0,0,0,0,0,0,0,0,0,0,0,0,0,0,0,0,0,0,0,0,0,0,0,0,0,0,0,0,0,0,0,0,0,0,0,0,0,0,0,0,0,0,0,0,0,0,0,5204,5205,5206,0,0,0,0,0,
0,0,0,0,0,0,0,0,0,0,0,0,0,0,0,0,0,0,0,0,0,0,0,0,0,0,0,0,0,0,0,0,0,0,0,0,0,0,0,0,0,0,0,0,0,0,0,0,0,0,0,0,5236,5237,5238,0,0,0,0,0,
0,0,0,0,0,0,0,0,0,0,0,0,0,0,0,0,0,0,0,0,0,0,0,0,0,0,0,0,0,0,0,0,0,0,0,0,0,0,0,0,0,0,0,0,0,0,0,0,0,0,0,0,0,0,0,0,0,0,0,0,
0,0,0,0,0,0,0,0,0,0,0,0,0,0,0,0,0,0,0,0,0,0,0,0,0,0,0,0,0,0,0,0,0,0,0,0,0,0,0,0,0,0,0,0,0,0,0,0,0,0,0,0,0,0,0,0,0,0,0,0,
0,0,0,0,0,0,0,0,0,0,0,0,0,0,0,0,0,0,0,0,0,0,0,0,0,0,0,0,0,0,0,0,0,0,0,0,0,0,0,0,0,0,0,0,0,0,0,0,0,0,0,0,0,0,0,0,0,0,0,0,
0,0,0,0,0,0,0,0,0,0,0,0,0,0,0,0,0,0,0,0,0,0,0,0,0,0,0,0,0,0,0,0,0,0,0,0,0,0,0,0,0,0,0,0,0,0,0,0,0,0,0,0,0,0,0,0,0,0,0,0,
0,0,0,0,0,0,0,0,0,0,0,0,0,0,0,0,0,0,0,0,0,0,0,0,0,0,0,0,0,0,0,0,0,0,0,0,0,0,0,0,0,0,0,0,0,0,0,0,0,0,0,0,0,0,0,0,0,0,0,0,
0,0,0,0,0,0,0,0,0,0,0,0,0,0,0,0,0,0,0,0,0,0,0,0,0,0,0,0,0,0,0,0,0,0,0,0,0,0,0,0,0,0,0,0,0,0,0,0,0,0,0,0,0,0,0,0,0,0,0,0,
0,0,0,0,0,0,0,0,0,0,0,0,0,0,0,0,0,0,0,0,0,0,0,0,0,0,0,0,0,0,0,0,0,0,0,0,0,0,0,0,0,0,0,0,0,0,0,0,0,0,0,0,0,0,0,0,0,0,0,0,
0,0,0,0,0,0,0,0,0,0,0,0,0,0,0,0,0,0,0,0,0,0,0,0,0,0,0,0,0,0,0,0,0,0,0,0,0,0,0,0,0,0,5164,5165,5166,5167,5168,5169,5170,0,0,0,0,0,0,0,0,0,0,0,
0,0,0,0,0,0,0,0,0,0,0,0,0,0,0,0,0,0,0,0,0,0,0,0,0,0,0,0,0,0,0,0,0,0,0,0,0,0,0,0,0,0,5196,5197,5198,5199,5200,5201,5202,0,0,0,0,0,0,0,0,0,0,0,
0,0,0,0,0,0,0,0,0,0,0,0,0,0,0,0,0,0,0,0,0,0,0,0,0,0,0,0,0,0,0,0,0,0,0,0,0,0,0,0,0,0,5228,5229,5230,5231,5232,5233,5234,0,0,0,0,0,0,0,0,0,0,0,
0,0,0,0,0,0,0,0,0,0,0,0,0,0,0,0,0,0,0,0,0,0,0,0,0,0,0,0,0,0,0,0,0,0,0,0,0,0,0,0,0,0,5260,5261,5262,5263,5264,5265,5266,0,0,0,0,0,0,0,0,0,0,0,
0,0,0,0,0,0,0,0,0,0,0,0,0,0,0,0,0,0,0,0,0,0,0,0,0,0,0,0,0,0,0,0,0,0,0,0,0,0,0,0,0,0,5292,5293,5294,5295,5296,5297,5298,0,0,0,0,0,0,0,0,0,0,0,
0,0,0,0,0,0,0,0,0,0,0,0,0,0,0,0,0,0,0,0,0,0,0,0,0,0,0,0,0,0,0,0,0,0,0,0,0,0,0,0,0,0,0,0,0,0,0,0,0,0,0,0,0,0,0,0,0,0,0,0,
0,0,0,0,0,0,0,0,0,0,0,0,0,0,0,0,0,0,0,0,0,0,0,0,0,0,0,0,0,0,0,0,0,0,0,0,0,0,0,0,0,0,0,0,0,0,0,0,0,0,0,0,0,0,0,0,0,0,0,0,
0,0,0,0,0,0,0,0,0,0,0,0,0,0,0,0,0,0,0,0,0,0,0,0,0,0,0,0,0,0,0,0,0,0,0,0,0,0,0,0,0,0,0,0,0,0,0,0,0,0,0,0,0,0,0,0,0,0,0,0,
0,0,0,0,0,0,0,0,0,0,0,0,0,0,0,0,0,0,0,0,0,0,0,0,0,0,0,5140,5141,5142,0,0,0,0,0,0,0,0,0,0,0,0,0,0,0,0,0,0,0,0,0,0,0,0,0,0,0,0,0,0,
0,0,0,0,0,0,0,0,0,0,0,0,0,0,0,0,0,0,0,0,0,0,0,0,0,0,0,5172,5173,5174,0,0,0,0,0,0,0,0,0,0,0,0,0,0,0,0,0,0,0,0,0,0,0,0,0,0,0,0,0,0,
0,0,0,0,0,5339,5340,0,0,0,0,0,0,0,0,0,0,0,0,0,0,0,0,0,0,0,0,5204,5205,5206,0,0,0,0,0,0,0,0,0,0,0,0,0,0,0,0,0,0,0,0,0,0,0,0,0,0,0,0,0,0,
0,5303,5304,5305,5370,5371,5372,0,0,0,0,0,0,0,0,0,0,0,0,0,0,0,0,0,0,0,0,5236,5237,5238,0,0,0,0,0,0,0,0,0,0,0,0,0,0,0,5303,5304,5305,0,0,0,0,0,0,0,5143,5144,5145,0,0,
0,5335,5336,5337,5402,0,5404,0,0,0,0,0,0,0,0,0,0,0,0,0,0,0,0,0,0,0,0,0,0,0,0,0,0,0,0,0,0,0,0,0,0,0,0,0,0,5335,5336,5337,0,0,0,0,0,0,0,5175,5176,5177,0,0,
0,5367,5368,5369,0,0,0,0,0,0,0,0,0,0,0,0,0,0,0,0,0,0,0,0,0,0,0,0,0,0,0,0,0,0,0,0,0,0,0,0,0,0,0,0,0,5367,5368,5369,0,0,0,0,0,0,0,5207,5208,5209,0,0,
0,0,0,0,0,0,0,0,0,0,0,0,0,0,0,0,0,0,0,0,0,0,0,0,0,0,0,0,0,0,0,0,0,0,0,0,0,0,0,0,0,0,0,0,0,0,0,0,0,0,0,0,0,0,0,5239,5240,5241,0,0,
0,0,0,0,0,0,0,0,0,0,0,0,0,0,0,0,0,0,0,0,0,0,0,0,0,0,0,0,0,0,0,0,0,0,0,0,0,0,0,0,0,0,0,0,0,0,0,0,0,0,0,0,0,0,0,0,0,0,0,0,
0,0,0,0,0,0,0,0,0,0,0,0,0,0,0,0,0,0,0,0,0,0,0,0,0,0,0,0,0,0,0,0,0,0,0,0,0,0,0,0,0,0,0,0,0,0,0,0,0,0,0,0,0,0,0,0,0,0,0,0,
0,0,0,0,0,0,0,0,0,0,0,0,0,0,0,0,0,0,0,0,0,0,0,0,0,0,0,0,0,0,0,0,0,0,0,0,0,0,0,0,0,0,0,0,0,0,0,0,0,0,0,0,0,0,0,0,0,0,0,0
</data>
 </layer>
 <objectgroup id="7" name="Spawn">
  <object id="1" name="spawn" x="961" y="99">
   <point/>
  </object>
 </objectgroup>
 <objectgroup id="8" name="portals">
  <object id="2" name="cinderreach" x="24" y="389">
   <point/>
  </object>
  <object id="3" name="tidewrit_shallows" x="20" y="940">
   <point/>
  </object>
  <object id="4" name="rootbound_wilds" x="706" y="1241">
   <point/>
  </object>
  <object id="5" name="stormrun_reaches" x="1246" y="1242">
   <point/>
  </object>
  <object id="6" name="unread_margins" x="1875" y="1078">
   <point/>
  </object>
  <object id="7" name="radiant_archive" x="1886" y="255">
   <point/>
  </object>
 </objectgroup>
 <objectgroup id="9" name="No Encounter">
  <object id="8" x="6" y="319" width="317" height="67"/>
  <object id="9" x="257" y="376" width="62" height="581"/>
  <object id="10" x="-28" y="896" width="347" height="61"/>
  <object id="11" x="1172" y="918"/>
  <object id="12" x="921" y="-1" width="75" height="679"/>
  <object id="13" x="671" y="668" width="65" height="613"/>
  <object id="14" x="1120" y="671" width="64" height="290"/>
  <object id="15" x="1218" y="957" width="63" height="331"/>
  <object id="16" x="1629" y="669" width="66" height="421"/>
  <object id="17" x="1631" y="1022" width="291" height="69"/>
  <object id="18" x="1442" y="192" width="484" height="66"/>
  <object id="19" x="1442" y="128" width="66" height="543"/>
  <object id="20" x="260" y="604" width="1563" height="67"/>
  <object id="21" x="1121" y="895" width="160.5" height="67"/>
 </objectgroup>
 <objectgroup id="10" name="Recycler">
  <object id="22" name="recycler" x="1198.67" y="433.333">
   <point/>
  </object>
 </objectgroup>
</map>
